X:1359
T:Bell's Favorite Jig
R:jig
M:6/8
L:1/8
K:D
A|FEF GFG|BAF A2d|cde ABc|dcB A2G|
FEF GFG|BAF A2d|cde ABc|d3 d2:|
|:f|aba fdf|gfg e2d|cde ABc|dcB A2f|
aba fdf|gfg e2d|cde ABc|d3 d2:|


